public/illustrations/_metro.svg

<svg width="222" height="388" viewBox="0 0 222 388" fill="none" xmlns="http://www.w3.org/2000/svg">
<path d="M51.1706 263.655C51.3405 263.386 51.5105 262.975 51.5529 262.551C51.6662 258.006 51.6238 253.602 51.5954 249.057C51.6662 248.208 51.6096 247.217 51.5529 246.353C51.7936 236.994 52.0485 227.635 52.2892 218.277C52.4874 211.042 52.544 203.948 52.6007 196.699C52.6431 188.034 52.6998 179.227 52.7423 170.562C52.7565 165.451 53.0679 160.354 53.0963 155.101C53.1529 151.122 53.2237 147.158 53.167 142.882C52.36 142.387 51.5388 142.033 50.576 141.664C25.6851 133.665 10.2663 116.547 2.9038 91.8828C0.171177 82.5523 -0.692536 72.8112 0.567585 63.2542C4.56033 32.1902 25.8266 8.3187 54.8236 1.74911C71.5166 -2.20113 89.1725 0.616488 103.756 9.42314C110.779 13.5858 117.348 18.1448 122.629 24.4312C132.413 36.0837 138.388 50.6813 139.634 65.8451C141.347 87.0264 135.443 105.702 121.27 121.658C111.331 133.014 97.7102 140.787 82.702 143.448C81.6967 143.647 80.6773 143.845 79.5163 144.171C79.4313 145.162 79.6438 146.025 79.5588 146.875C79.5022 153.982 79.4738 160.934 79.4172 168.042C79.3605 173.578 79.4455 179.128 79.403 184.523C79.3464 188.36 79.3039 192.182 79.2473 196.019C79.2048 201.414 79.3039 206.822 79.2473 212.217C79.2473 215.487 79.2473 218.9 79.2331 222.17C79.1198 226.715 78.9924 231.387 79.0208 236.074C78.9783 244.739 79.0773 253.418 79.134 262.522L82.8577 262.14L83.8064 251.28C83.9905 249.171 83.8771 247.16 83.9054 245.178C84.1037 238.084 84.132 231.133 84.3303 224.039C84.3586 222.057 84.5143 220.216 84.84 218.262C85.4912 214.057 87.3319 212.514 91.5937 212.457C97.9934 212.457 104.379 212.571 110.764 212.571C120.718 212.571 130.53 212.443 140.342 212.443C145.17 212.443 150.126 212.726 154.954 212.726C169.013 212.811 182.931 213.038 196.849 213.109C202.668 213.194 208.657 212.995 214.604 213.236C219.843 213.406 221.655 215.558 221.471 220.797C221.273 229.589 221.344 238.552 221.145 247.344C220.975 249.312 220.82 251.153 220.919 253.149C220.876 258.544 220.834 263.938 220.791 269.332C220.721 270.182 220.636 271.173 220.692 272.023C220.48 282.67 220.253 293.303 220.183 303.95C220.027 305.791 219.871 307.476 219.998 309.33C219.843 319.27 219.673 329.337 219.503 339.417C219.376 344.09 219.248 348.918 219.262 353.604C219.064 360.839 219.121 368.23 218.767 375.593C218.54 378.269 218.299 380.959 217.507 383.578C217.124 384.682 216.473 385.617 215.411 386.382C214.349 387.146 213.344 387.345 212.055 387.373C202.64 387.826 193.324 387.019 184.106 385.221C175.852 383.649 167.498 381.78 159.286 379.784C143.301 375.692 127.585 370.057 112.733 362.793C100.584 357.045 89.2433 350.235 78.5677 342.193C66.0514 332.579 54.951 321.238 45.5638 308.339C39.4615 300.127 34.0953 291.561 29.3238 282.627C27.8513 279.937 26.6761 277.134 25.5151 274.189C23.4197 268.894 26.662 264.334 32.4813 264.419L49.8397 264.221C50.2645 264.264 50.7034 264.15 50.9865 264.037L51.1706 263.627V263.655ZM37.3093 274.387C38.2721 276.454 38.9942 277.941 39.872 279.3C43.5958 285.459 47.3336 291.604 51.3547 297.636C58.9013 308.807 67.977 318.987 78.2987 327.694C95.7563 342.717 115.876 353.137 137.199 361.25C148.625 365.512 160.263 368.938 172.255 371.557C182.974 374.191 193.904 375.862 204.934 376.541C206.208 376.655 207.454 377.051 208.516 376.145C209.28 370.665 209.365 356.606 208.742 353.987C204.75 354.072 200.629 354.128 196.637 354.355C188.51 354.638 180.411 354.652 172.355 354.086C168.249 353.874 166.295 351.849 165.643 347.955C165.105 344.359 164.992 340.791 164.737 337.223C164.369 333.216 164.879 329.138 163.93 325.217C157.12 325.047 150.593 324.905 144.066 324.763C143.641 324.721 143.344 324.848 142.919 324.947C139.507 324.947 136.222 325.216 132.965 324.947C128.165 324.523 125.843 321.917 125.39 317.33C124.937 312.743 124.767 308.184 124.173 303.582C123.918 301.572 124.413 299.193 122.615 297.055C117.787 297.055 112.803 297.055 107.819 297.182C102.836 297.31 97.8234 297.735 92.8679 297.579C86.6381 297.324 84.5709 294.86 84.3443 289.452C84.2028 286.167 83.9338 282.741 83.7922 279.456C83.6931 277.318 83.3108 275.152 82.9993 272.278C80.2384 274.6 77.3217 273.778 74.6315 273.679L73.9236 273.623C66.5328 273.693 59.1278 273.75 51.5813 273.948C47.0363 273.976 42.6047 274.16 37.4792 274.288L37.3235 274.415L37.3093 274.387ZM208.955 343.354L209.139 341.244C209.464 334.306 209.634 327.354 209.818 320.417L209.875 319.709C209.918 314.314 209.96 308.92 210.002 303.525C210.045 301.402 210.385 299.15 210.286 297.013C210.484 286.507 210.696 276.015 210.894 265.51C211.008 264.235 211.121 262.975 211.079 261.687C211.079 256.859 211.079 251.875 211.079 247.047C211.149 241.369 211.503 235.72 211.56 230.028C211.73 228.06 211.333 226.036 211.263 223.6C200.063 223.331 189.118 223.232 177.876 223.388C177.707 228.627 177.707 233.469 177.579 238.283C177.452 246.226 177.197 254.169 177.069 262.112C176.73 272.462 176.39 282.939 176.206 293.303C176.092 297.848 175.993 302.237 176.022 306.782C176.022 311.752 176.291 316.75 174.719 321.733L174.578 323.291C174.79 328.997 174.988 334.844 175.201 340.536C175.37 341.824 175.54 343.127 175.866 344.288C186.839 343.962 197.727 344.628 208.941 343.184V343.325L208.955 343.354ZM135.287 314.484C140.894 315.405 162.514 315.15 165.162 314.102C165.289 309.43 165.261 304.729 165.403 299.915C165.558 291.689 165.842 283.463 165.983 275.237C166.323 261.474 166.677 247.727 167.003 234.106C167.031 230.552 167.059 226.998 166.96 223.161L133.73 222.821C133.758 225.809 133.801 228.513 133.857 231.076C133.687 241.157 133.645 251.379 133.489 261.46C133.333 271.4 132.909 281.169 132.611 291.094C132.54 291.944 132.753 292.807 132.795 293.813C133.277 298.117 133.886 302.435 134.367 306.74C134.707 309.331 134.905 311.907 135.259 314.498L135.287 314.484ZM129.85 78.503C130.445 73.2926 130.332 68.0256 129.525 62.7019C126.042 42.356 115.309 26.9232 97.5827 16.5733C88.2522 11.0656 77.7323 9.43724 67.0283 10.0744C59.7508 10.4283 52.4874 12.2124 45.8187 15.3273C39.15 18.4422 33.2175 22.902 28.2053 28.2823C19.4269 37.6128 13.5653 49.4637 11.4698 62.0649C9.36013 74.8076 11.2149 87.7626 16.7367 99.4718C25.9257 119.605 48.1548 136.893 75.3536 134.713C86.3691 133.962 96.804 129.899 105.497 123.131C112.492 117.906 118.339 111.181 122.544 103.578C126.778 95.8472 129.355 87.3946 129.978 78.6445L129.85 78.4888V78.503ZM95.5297 222.751C95.4589 223.6 95.2465 224.436 95.1616 225.271C94.9775 229.094 94.9209 232.931 94.8643 236.754C94.4395 248.222 93.9864 259.846 93.5616 271.315C93.4484 275.86 93.7457 280.574 93.9156 285.133C93.8873 285.417 93.8731 285.7 93.9864 285.997C93.9581 286.28 94.2271 286.45 94.4962 286.748C94.7652 286.917 95.0342 287.073 95.3032 287.243L96.1527 287.314L106.545 287.087L118.792 286.875C119.925 286.974 121.058 286.932 122.488 286.917L122.813 283.25C122.913 277.29 122.87 271.173 122.969 265.212C123.125 255.273 123.408 245.489 123.705 235.578C123.776 231.458 123.705 227.48 123.776 223.359C121.27 222.708 99.7065 222.255 95.5439 222.751H95.5297ZM63.8426 145.955C63.6869 152.623 63.432 158.853 63.3046 165.239C63.3046 168.651 63.1205 172.19 63.1064 175.603C63.0356 181.28 63.1206 186.83 62.9082 192.494C62.8799 197.747 62.5684 202.985 62.5259 208.238C62.4693 212.075 62.4268 215.898 62.3702 219.735C62.2994 225.413 62.3843 230.963 62.1719 236.626C62.1436 241.879 61.8321 247.118 61.7896 252.37C61.7896 255.641 61.7896 259.053 61.8887 262.607L68.5292 261.474L69.0955 254.99C69.2088 250.445 69.0531 245.744 69.0247 241.199C68.9964 236.654 69.2371 232.265 69.2087 227.72C69.2087 224.45 69.2087 221.038 69.2229 217.767C69.1946 213.222 69.1805 208.521 69.1521 203.976C69.1238 199.432 69.3645 195.042 69.3362 190.497C69.3362 187.227 69.3362 183.815 69.3504 180.544C69.3362 175.857 69.322 171.015 69.3079 166.329C69.2654 161.925 69.492 157.678 69.4495 153.26C69.5061 150.995 69.2796 148.701 69.1946 146.422L63.8285 145.955H63.8426Z" fill="#102185"/>
<path d="M123.663 75.9823C122.998 83.5996 120.789 91.0753 117.079 97.7157C113.37 104.356 108.301 110.317 102.227 114.89C93.5333 121.672 82.9711 125.438 71.8565 125.75C65.1595 126.019 58.4199 124.999 52.0768 122.748C45.7337 120.497 39.9428 116.858 35.0864 112.172C29.5362 107.287 25.2462 101.227 22.2729 94.5726C19.2995 87.918 17.8128 80.5413 17.7279 73.278C17.558 55.6364 24.2409 41.0106 37.5925 29.6696C50.1796 18.9657 64.8621 15.1287 81.0879 18.1161C92.1458 20.07 102.184 25.4927 109.561 33.818C117.504 42.1857 122.389 52.9887 123.38 64.443C123.89 68.3225 123.989 72.1737 123.649 75.9823H123.663ZM47.7868 49.7606C47.716 50.6101 47.362 51.4313 47.277 52.2808C45.8187 69.0588 44.3462 85.8508 42.902 102.501C42.8312 103.351 42.7604 104.2 43.256 104.951C43.6241 105.687 44.1338 106.31 44.7992 106.791C52.4024 112.568 61.8038 115.527 71.3609 115.074C78.4969 114.706 85.6328 112.766 91.7777 109.043C92.3723 108.816 92.9812 108.292 93.3068 107.754C93.6325 107.216 93.8448 106.522 93.9015 105.814C93.9015 100.986 94.0289 96.1583 94.0431 91.1886C94.0006 88.3428 94.1139 85.511 94.0573 82.8067C94.0148 78.4034 93.9581 74.1275 93.9156 69.7242C93.9723 65.7456 94.0431 61.7813 93.9582 57.7886C93.9157 54.9427 93.7599 51.941 93.7883 48.3872C92.5423 49.704 91.6219 50.4685 90.8291 51.403C85.7744 57.2222 80.8472 63.1829 75.9341 69.0021C71.9697 73.7735 68.4017 73.8868 64.2816 68.9879C59.7933 63.4802 54.8519 58.0718 50.2079 52.6915C49.5707 51.9269 48.6504 50.9923 47.7443 49.9163V49.7747L47.7868 49.7606ZM92.0892 33.8605C80.7198 25.6202 59.057 26.4272 49.061 35.0781L70.2424 59.5159L91.9476 33.8321H92.0892V33.8605ZM104.889 45.2015C104.209 49.6898 104.039 92.4487 105.271 96.2574C116.612 81.9005 116.286 57.9868 105.03 45.2157H104.889V45.2015ZM37.1819 45.8386C26.2797 58.3973 25.3028 81.0511 33.8121 92.5903C35.1572 77.0725 36.2191 61.6821 37.3235 45.8528H37.1819V45.8386Z" fill="#102185"/>
</svg>

<svg xmlns="http://www.w3.org/2000/svg" width="222" height="388" fill="none" viewBox="0 0 222 388"><path fill="#102185" d="M51.17 263.655c.17-.269.34-.68.383-1.104.113-4.545.07-8.949.042-13.494.071-.849.015-1.84-.042-2.704.24-9.359.495-18.718.736-28.076.198-7.235.255-14.329.312-21.578.042-8.665.099-17.472.141-26.137.015-5.111.326-10.208.354-15.461.057-3.979.128-7.943.071-12.219-.807-.495-1.628-.849-2.591-1.218-24.89-7.999-40.31-25.117-47.672-49.781C.17 82.553-.693 72.81.568 63.254 4.56 32.19 25.827 8.32 54.824 1.75 71.517-2.2 89.173.616 103.756 9.423c7.023 4.163 13.592 8.722 18.873 15.008 9.784 11.653 15.759 26.25 17.005 41.414 1.713 21.181-4.191 39.857-18.364 55.813-9.939 11.356-23.56 19.129-38.568 21.79-1.005.199-2.025.397-3.186.723-.085.991.128 1.854.043 2.704-.057 7.107-.085 14.059-.142 21.167-.056 5.536.028 11.086-.014 16.481-.057 3.837-.1 7.659-.156 11.496-.042 5.395.057 10.803 0 16.198 0 3.27 0 6.683-.014 9.953-.113 4.545-.24 9.217-.212 13.904-.043 8.665.056 17.344.113 26.448l3.724-.382.948-10.86c.184-2.109.071-4.12.1-6.102.198-7.094.226-14.045.424-21.139.029-1.982.184-3.823.51-5.777.651-4.205 2.492-5.748 6.754-5.805 6.4 0 12.785.114 19.17.114 9.954 0 19.766-.128 29.578-.128 4.828 0 9.784.283 14.612.283 14.059.085 27.977.312 41.895.383 5.819.085 11.808-.114 17.755.127 5.239.17 7.051 2.322 6.867 7.561-.198 8.792-.127 17.755-.326 26.547-.17 1.968-.325 3.809-.226 5.805l-.128 16.183c-.07.85-.155 1.841-.099 2.691-.212 10.647-.439 21.28-.509 31.927-.156 1.841-.312 3.526-.185 5.38-.155 9.94-.325 20.007-.495 30.087-.127 4.673-.255 9.501-.241 14.187-.198 7.235-.141 14.626-.495 21.989-.227 2.676-.468 5.366-1.26 7.985-.383 1.104-1.034 2.039-2.096 2.804s-2.067.963-3.356.991c-9.415.453-18.731-.354-27.949-2.152-8.254-1.572-16.608-3.441-24.82-5.437-15.985-4.092-31.701-9.727-46.553-16.991-12.149-5.748-23.49-12.558-34.165-20.6a165.2 165.2 0 0 1-33.004-33.854c-6.102-8.212-11.469-16.778-16.24-25.712-1.473-2.69-2.648-5.493-3.809-8.438-2.095-5.295 1.147-9.855 6.966-9.77l17.359-.198c.424.043.863-.071 1.146-.184l.185-.41zm-13.86 10.732c.962 2.067 1.684 3.554 2.562 4.913 3.724 6.159 7.462 12.304 11.483 18.336 7.546 11.171 16.622 21.351 26.944 30.058 17.457 15.023 37.577 25.443 58.9 33.556a257 257 0 0 0 35.056 10.307 184.4 184.4 0 0 0 32.679 4.984c1.274.114 2.52.51 3.582-.396.764-5.48.849-19.539.226-22.158-3.992.085-8.113.141-12.105.368-8.127.283-16.226.297-24.282-.269-4.106-.212-6.06-2.237-6.712-6.131-.538-3.596-.651-7.164-.906-10.732-.368-4.007.142-8.085-.807-12.006-6.81-.17-13.337-.312-19.864-.454-.425-.042-.722.085-1.147.184-3.412 0-6.697.269-9.954 0-4.8-.424-7.122-3.03-7.575-7.617s-.623-9.146-1.217-13.748c-.255-2.01.24-4.389-1.558-6.527-4.828 0-9.812 0-14.796.127-4.983.128-9.996.553-14.951.397-6.23-.255-8.297-2.719-8.524-8.127-.141-3.285-.41-6.711-.552-9.996-.099-2.138-.481-4.304-.793-7.178-2.76 2.322-5.677 1.5-8.367 1.401l-.708-.056c-7.391.07-14.796.127-22.343.325-4.545.028-8.976.212-14.102.34l-.155.127zm171.645 68.967.184-2.11c.325-6.938.495-13.89.679-20.827l.057-.708.127-16.184c.043-2.123.383-4.375.284-6.512.198-10.506.41-20.998.608-31.503.114-1.275.227-2.535.185-3.823v-14.64c.07-5.678.424-11.327.481-17.019.17-1.968-.227-3.992-.297-6.428-11.2-.269-22.145-.368-33.387-.212-.169 5.239-.169 10.081-.297 14.895-.127 7.943-.382 15.886-.51 23.829-.339 10.35-.679 20.827-.863 31.191-.114 4.545-.213 8.934-.184 13.479 0 4.97.269 9.968-1.303 14.951l-.141 1.558c.212 5.706.41 11.553.623 17.245.169 1.288.339 2.591.665 3.752 10.973-.326 21.861.34 33.075-1.104v.141zm-73.668-28.87c5.607.921 27.227.666 29.875-.382.127-4.672.099-9.373.241-14.187.155-8.226.439-16.452.58-24.678.34-13.763.694-27.51 1.02-41.131.028-3.554.056-7.108-.043-10.945l-33.23-.34c.028 2.988.071 5.692.127 8.255-.17 10.081-.212 20.303-.368 30.384-.156 9.94-.58 19.709-.878 29.634-.071.85.142 1.713.184 2.719.482 4.304 1.091 8.622 1.572 12.927.34 2.591.538 5.167.892 7.758zM129.85 78.503c.595-5.21.482-10.477-.325-15.801-3.483-20.346-14.216-35.779-31.942-46.129-9.33-5.507-19.85-7.136-30.555-6.499a56.8 56.8 0 0 0-21.21 5.253c-6.668 3.115-12.6 7.575-17.613 12.955-8.778 9.33-14.64 21.182-16.735 33.783-2.11 12.743-.255 25.698 5.267 37.407 9.189 20.133 31.418 37.421 58.617 35.241 11.015-.751 21.45-4.814 30.143-11.582a61.9 61.9 0 0 0 17.047-19.553c4.234-7.73 6.811-16.183 7.434-24.934l-.128-.155zM95.53 222.751c-.071.849-.284 1.685-.368 2.52-.184 3.823-.241 7.66-.298 11.483-.425 11.468-.878 23.092-1.302 34.561-.114 4.545.184 9.259.354 13.818-.029.284-.043.567.07.864-.028.283.241.453.51.751.27.169.538.325.807.495l.85.071 10.392-.227 12.247-.212c1.133.099 2.266.057 3.696.042l.325-3.667c.1-5.96.057-12.077.156-18.038.156-9.939.439-19.723.736-29.634.071-4.12 0-8.098.071-12.219-2.506-.651-24.07-1.104-28.232-.608zm-31.687-76.796c-.156 6.668-.411 12.898-.538 19.284 0 3.412-.184 6.951-.199 10.364-.07 5.677.015 11.227-.198 16.891-.028 5.253-.34 10.491-.382 15.744-.057 3.837-.1 7.66-.156 11.497-.07 5.678.014 11.228-.198 16.891-.028 5.253-.34 10.492-.382 15.744 0 3.271 0 6.683.099 10.237l6.64-1.133.567-6.484c.113-4.545-.043-9.246-.071-13.791-.029-4.545.212-8.934.184-13.479 0-3.27 0-6.682.014-9.953-.028-4.545-.043-9.246-.07-13.791-.03-4.544.212-8.934.183-13.479 0-3.27 0-6.682.014-9.953l-.042-14.215c-.043-4.404.184-8.651.141-13.069.057-2.265-.17-4.559-.254-6.838l-5.366-.467z"/><path fill="#102185" d="M123.663 75.982c-.665 7.618-2.874 15.093-6.584 21.734-3.709 6.64-8.778 12.601-14.852 17.174-8.694 6.782-19.256 10.548-30.37 10.86a52.9 52.9 0 0 1-19.78-3.002c-6.343-2.251-12.134-5.89-16.99-10.576-5.55-4.885-9.84-10.945-12.814-17.6-2.974-6.654-4.46-14.03-4.545-21.294-.17-17.642 6.513-32.267 19.865-43.608 12.587-10.704 27.27-14.541 43.495-11.554 11.058 1.954 21.096 7.377 28.473 15.702 7.943 8.368 12.828 19.17 13.819 30.625.51 3.88.609 7.73.269 11.54zM47.787 49.761c-.071.85-.425 1.67-.51 2.52-1.458 16.778-2.93 33.57-4.375 50.22-.07.85-.142 1.699.354 2.45a5 5 0 0 0 1.543 1.84c7.603 5.777 17.005 8.736 26.562 8.283 7.136-.368 14.272-2.308 20.417-6.031.594-.227 1.203-.751 1.529-1.289s.538-1.232.594-1.94c0-4.828.128-9.656.142-14.625-.042-2.846.07-5.678.014-8.382-.042-4.404-.099-8.68-.141-13.083.056-3.978.127-7.943.042-11.935-.042-2.846-.198-5.848-.17-9.402-1.246 1.317-2.166 2.081-2.959 3.016-5.055 5.82-9.982 11.78-14.895 17.6-3.964 4.77-7.532 4.884-11.652-.015-4.489-5.508-9.43-10.916-14.074-16.297-.637-.764-1.558-1.699-2.464-2.775v-.141zm44.302-15.9c-11.37-8.24-33.032-7.434-43.028 1.217l21.181 24.438 21.706-25.684h.141zm12.8 11.34c-.68 4.489-.85 47.248.382 51.056 11.341-14.357 11.015-38.27-.241-51.041h-.141zm-67.707.638C26.28 58.397 25.302 81.05 33.812 92.59c1.345-15.517 2.407-30.908 3.512-46.737h-.142z"/></svg>
